website/public/svg/addIcon.svg

<svg width="38" height="38" viewBox="0 0 38 38" fill="none" xmlns="http://www.w3.org/2000/svg">
<path d="M17.0165 35.668C17.1151 34.632 17.1645 33.6453 17.1645 32.708C17.2138 31.7707 17.2385 31.006 17.2385 30.414V20.202H7.69245C6.80445 20.202 5.79312 20.2267 4.65845 20.276C3.52379 20.276 2.66045 20.3253 2.06845 20.424H1.92045C1.52579 20.424 1.20512 20.1773 0.958453 19.684C0.711787 19.1413 0.588453 18.5987 0.588453 18.056C0.588453 17.02 0.958453 16.502 1.69845 16.502C2.43845 16.5513 3.32645 16.6007 4.36245 16.65C5.44779 16.65 6.58245 16.65 7.76645 16.65H17.2385V7.548C17.2385 6.364 17.2138 5.254 17.1645 4.218C17.1645 3.13266 17.1398 2.22 17.0905 1.48C17.0905 1.08533 17.2385 0.813998 17.5345 0.665998C17.8305 0.468664 18.1758 0.369997 18.5705 0.369997C19.1131 0.369997 19.6558 0.493331 20.1985 0.739999C20.7411 0.986666 21.0125 1.30733 21.0125 1.702V1.85C20.9631 2.442 20.9138 3.30533 20.8645 4.44C20.8151 5.57466 20.7905 6.586 20.7905 7.474V16.65H30.4845C31.0271 16.65 31.7671 16.6253 32.7045 16.576C33.6911 16.5267 34.7025 16.4773 35.7385 16.428H35.8125C36.2565 16.428 36.6018 16.6747 36.8485 17.168C37.1445 17.6613 37.2925 18.1793 37.2925 18.722C37.2925 19.1167 37.1938 19.4867 36.9965 19.832C36.8485 20.128 36.5771 20.276 36.1825 20.276C35.0478 20.276 33.9378 20.276 32.8525 20.276C31.8165 20.2267 31.0025 20.202 30.4105 20.202H20.7905V30.34C20.7905 31.0307 20.7905 31.894 20.7905 32.93C20.8398 33.9167 20.8645 34.9773 20.8645 36.112C20.8645 36.4573 20.6918 36.7287 20.3465 36.926C20.0505 37.1233 19.7051 37.222 19.3105 37.222C18.7678 37.222 18.2498 37.0987 17.7565 36.852C17.2631 36.556 17.0165 36.186 17.0165 35.742V35.668Z" fill="white"/>
</svg>

<svg xmlns="http://www.w3.org/2000/svg" width="38" height="38" fill="none"><path fill="#fff" d="M17.017 35.668q.147-1.554.148-2.96.073-1.406.073-2.294V20.202H7.692q-1.332 0-3.034.074-1.702 0-2.59.148H1.92q-.591 0-.962-.74a3.9 3.9 0 0 1-.37-1.628q0-1.554 1.11-1.554 1.11.075 2.664.148H17.24V7.548q0-1.776-.075-3.33 0-1.628-.074-2.738 0-.592.445-.814A1.82 1.82 0 0 1 18.57.37q.815 0 1.628.37.814.37.814.962v.148q-.073.888-.148 2.59a71 71 0 0 0-.073 3.034v9.176h9.694q.813 0 2.22-.074 1.48-.075 3.034-.148h.074q.666 0 1.035.74.445.74.444 1.554 0 .593-.296 1.11-.222.444-.814.444h-3.33a55 55 0 0 0-2.441-.074h-9.62V32.93q.073 1.48.073 3.182 0 .518-.518.814a1.82 1.82 0 0 1-1.035.296 3.4 3.4 0 0 1-1.555-.37q-.74-.444-.74-1.11z"/></svg>
